X:551
T: Pengbai chuzai hailufeng
N: C1970
O: China,Guangdong Haifeng
S: II, 378]
R: Xiaodiao, Yge]
M: 2/4
L: 1/16
K: A
cdcBA2AB | c2cBA2e2 | cBA2cdcB | c2cBG2F2 | E4CEF2 | z2G2FGB2 | E8 |
Bce2e2Bce2d2 | cdcBA2AB | c2cBA2e2 | cBA2cdcB | c2cBG2F2 | E4
CEF2 | z2G2FGB2 | E8

@@@ Tune index: 7106
